img/i-arrow-right-white.svg

<svg height="30" viewBox="0 0 83 30" width="83" xmlns="http://www.w3.org/2000/svg"><path d="m81.5309651 13.4415011h-76.4821077l10.8695163-10.92176119c.5738442-.57612021.5738442-1.51116789 0-2.08728811-.5738442-.5766024-1.503469-.5766024-2.0773034 0l-13.21737686 13.2808969c-.37634714.2672816-.62369344.7058592-.62369344 1.2042482 0 .0075675.00209582.0145937.00221335.0221612-.00017629.0161583.00436793.0314113.00477926.0475696.00681632.1443327.03478674.2820524.07991549.4126279.0264818.0828877.06455919.1576667.10598597.2357423.03711762.0663062.07825059.1290698.12469168.1885958.04136802.0553143.06263965.1202428.1127925.1705777l13.50775605 13.5726817c.2869221.2883012.6627893.4324469 1.0386566.4324469s.7517345-.1441457 1.0386566-.4324469c.5738442-.5766024.5738442-1.5106955 0-2.0872881l-11.0335389-11.0865722h76.5490565c.8110248 0 1.4690349-.6606907 1.4690349-1.4760959 0-.8154051-.6580101-1.4760958-1.4690349-1.4760958z" fill="#fff" transform="matrix(-1 0 0 1 83 0)"/></svg>

<?xml version="1.0" encoding="UTF-8"?>
<svg width="83px" height="30px" viewBox="0 0 83 30" version="1.1" xmlns="http://www.w3.org/2000/svg" xmlns:xlink="http://www.w3.org/1999/xlink">
    <!-- Generator: Sketch 61.2 (89653) - https://sketch.com -->
    <title>i-arrow-right</title>
    <desc>Created with Sketch.</desc>
    <g id="Page-1" stroke="none" stroke-width="1" fill="none" fill-rule="evenodd">
        <g id="i-arrow-right" fill="#FFFFFF" fill-rule="nonzero">
            <path d="M81.5309651,13.4415011 L5.0488574,13.4415011 L15.9183737,2.51973991 C16.4922179,1.9436197 16.4922179,1.00857202 15.9183737,0.432451803 C15.3445295,-0.144150601 14.4149047,-0.144150601 13.8410703,0.432451803 L0.62369344,13.7133487 C0.2473463,13.9806303 0,14.4192079 0,14.9175969 C0,14.9251644 0.00209582,14.9321906 0.00221335,14.9397581 C0.00203706,14.9559164 0.00658128,14.9711694 0.00699261,14.9873277 C0.01380893,15.1316604 0.04177935,15.2693801 0.0869081,15.3999556 C0.1133899,15.4828433 0.15146729,15.5576223 0.19289407,15.6356979 C0.23001169,15.7020041 0.27114466,15.7647677 0.31758575,15.8242937 C0.35895377,15.879608 0.3802254,15.9445365 0.43037825,15.9948714 L13.9381343,29.5675531 C14.2250564,29.8558543 14.6009236,30 14.9767909,30 C15.3526582,30 15.7285254,29.8558543 16.0154475,29.5675531 C16.5892917,28.9909507 16.5892917,28.0568576 16.0154475,27.480265 L4.9819086,16.3936928 L81.5309651,16.3936928 C82.3419899,16.3936928 83,15.7330021 83,14.9175969 C83,14.1021918 82.3419899,13.4415011 81.5309651,13.4415011 Z" transform="translate(41.500000, 15.000000) scale(-1, 1) translate(-41.500000, -15.000000) "></path>
        </g>
    </g>
</svg>
